assets/fa/fa-people-arrows.svg

<svg xmlns="http://www.w3.org/2000/svg" width="100%" height="100%" viewBox="-48.96 -80.96 673.92 673.92"><path d="M96 128a64 64 0 10-64-64 64 64 0 0064 64zm0 176.08a44.11 44.11 0 0113.64-32L181.77 204c1.65-1.55 3.77-2.31 5.61-3.57A63.91 63.91 0 00128 160H64a64 64 0 00-64 64v96a32 32 0 0032 32v128a32 32 0 0032 32h64a32 32 0 0032-32v-96.39l-50.36-47.53a44.08 44.08 0 01-13.64-32zM480 128a64 64 0 10-64-64 64 64 0 0064 64zm32 32h-64a63.91 63.91 0 00-59.38 40.42c1.84 1.27 4 2 5.62 3.59l72.12 68.06a44.37 44.37 0 010 64L416 383.62V480a32 32 0 0032 32h64a32 32 0 0032-32V352a32 32 0 0032-32v-96a64 64 0 00-64-64zm-67.6 135.34l-72.12-68.06A12 12 0 00352 236v36H224v-36a12 12 0 00-20.28-8.73l-72.12 68.07a12.4 12.4 0 000 17.47l72.12 68.07a12 12 0 0020.28-8.74V336h128v36.14a12 12 0 0020.28 8.74l72.12-68.07a12.4 12.4 0 000-17.47z"/></svg>

<svg xmlns="http://www.w3.org/2000/svg" width="100%" height="100%" viewBox="-48.96 -80.96 673.92 673.92"><path d="M96,128A64,64,0,1,0,32,64,64,64,0,0,0,96,128Zm0,176.08a44.11,44.11,0,0,1,13.64-32L181.77,204c1.65-1.55,3.77-2.31,5.61-3.57A63.91,63.91,0,0,0,128,160H64A64,64,0,0,0,0,224v96a32,32,0,0,0,32,32V480a32,32,0,0,0,32,32h64a32,32,0,0,0,32-32V383.61l-50.36-47.53A44.08,44.08,0,0,1,96,304.08ZM480,128a64,64,0,1,0-64-64A64,64,0,0,0,480,128Zm32,32H448a63.91,63.91,0,0,0-59.38,40.42c1.84,1.27,4,2,5.62,3.59l72.12,68.06a44.37,44.37,0,0,1,0,64L416,383.62V480a32,32,0,0,0,32,32h64a32,32,0,0,0,32-32V352a32,32,0,0,0,32-32V224A64,64,0,0,0,512,160ZM444.4,295.34l-72.12-68.06A12,12,0,0,0,352,236v36H224V236a12,12,0,0,0-20.28-8.73L131.6,295.34a12.4,12.4,0,0,0,0,17.47l72.12,68.07A12,12,0,0,0,224,372.14V336H352v36.14a12,12,0,0,0,20.28,8.74l72.12-68.07A12.4,12.4,0,0,0,444.4,295.34Z"/></svg>
